X: 190
T: No_49_Cow_Creek_Hunting_Dance_Song_(p).krn
N: Derived from No_49_Cow_Creek_Hunting_Dance_Song_(p).krn
%%abc-version 2.0
%%abcx-abcm2ps-target-version 5.9.1 (29 Sep 2008)
%%abc-creator hum2abc beta
%%abcx-conversion-date 2019/03/15 08:38:45
%%humdrum-veritas 3047453393
%%humdrum-veritas-data 2171722704
%%linebreak <none>
%%barnumbers 0
L: 1/8
M: 2/4
K: F clef=bass
[K:clef=bass][M:2/4]F,2F,F, ||  
[M:3/4]C2CB,-B,2 ]|:  
[M:2/4]B,2A,3/F,/ | 
B,2z2 | 
F,2F,2 | 
CA, B,A, ||  
[M:3/4]F,2B,3/F,/F,2 ||  
[M:2/4]F,4 | 
CA, B,A, ||  
[M:3/4]A,F,F,2z2 | 
F,2F,4 ||  
[M:2/4]F,7/F,/ ||  
[M:3/4]F,4z2 | 
F,2F,4 ||  
[M:2/4]F,2F,2 ||  
[M:3/4]F,C CA,B,2 :|]  



